Numix-GalliumOS/22/categories/applications-lisp.svg

<?xml version="1.0" encoding="UTF-8" standalone="no"?>
<svg
   xmlns:dc="http://purl.org/dc/elements/1.1/"
   xmlns:cc="http://creativecommons.org/ns#"
   xmlns:rdf="http://www.w3.org/1999/02/22-rdf-syntax-ns#"
   xmlns:svg="http://www.w3.org/2000/svg"
   xmlns="http://www.w3.org/2000/svg"
   xmlns:sodipodi="http://sodipodi.sourceforge.net/DTD/sodipodi-0.dtd"
   xmlns:inkscape="http://www.inkscape.org/namespaces/inkscape"
   width="22"
   height="22"
   viewBox="0 0 22 22"
   id="svg2"
   version="1.1"
   inkscape:version="0.91 r"
   sodipodi:docname="applications-lisp.svg">
  <metadata
     id="metadata14">
    <rdf:RDF>
      <cc:Work
         rdf:about="">
        <dc:format>image/svg+xml</dc:format>
        <dc:type
           rdf:resource="http://purl.org/dc/dcmitype/StillImage" />
        <dc:title />
      </cc:Work>
    </rdf:RDF>
  </metadata>
  <defs
     id="defs12" />
  <sodipodi:namedview
     pagecolor="#ffffff"
     bordercolor="#666666"
     borderopacity="1"
     objecttolerance="10"
     gridtolerance="10"
     guidetolerance="10"
     inkscape:pageopacity="0"
     inkscape:pageshadow="2"
     inkscape:window-width="1680"
     inkscape:window-height="1026"
     id="namedview10"
     showgrid="true"
     inkscape:zoom="22.627417"
     inkscape:cx="12.957673"
     inkscape:cy="12.757493"
     inkscape:window-x="0"
     inkscape:window-y="24"
     inkscape:window-maximized="1"
     inkscape:current-layer="svg2"
     showguides="false">
    <inkscape:grid
       type="xygrid"
       id="grid4142" />
  </sodipodi:namedview>
  <path
     style="opacity:1;fill:#4793db;fill-opacity:1;fill-rule:nonzero;stroke:none;stroke-width:0.5;stroke-linecap:round;stroke-linejoin:miter;stroke-miterlimit:4;stroke-dasharray:none;stroke-dashoffset:0;stroke-opacity:1"
     id="path4227"
     cy="-7.78125"
     cx="17.796875"
     ry="1.5"
     rx="4"
     d=""
     inkscape:connector-curvature="0" />
  <path
     inkscape:connector-curvature="0"
     d=""
     style="opacity:1;fill:#4793db;fill-opacity:1;fill-rule:nonzero;stroke:none;stroke-width:0.5;stroke-linecap:round;stroke-linejoin:miter;stroke-miterlimit:4;stroke-dasharray:none;stroke-dashoffset:0;stroke-opacity:1"
     id="path4227-3"
     cy="-7.78125"
     cx="17.796875"
     ry="1.5"
     rx="4" />
  <path
     style="opacity:1;fill:#d07d86;fill-opacity:1;fill-rule:nonzero;stroke:none;stroke-width:1;stroke-linecap:square;stroke-linejoin:miter;stroke-miterlimit:4;stroke-dasharray:none;stroke-dashoffset:0;stroke-opacity:1"
     d="M 8,5 C 6.3549904,5 5,6.3549904 5,8 l 0,5 c 0,0.552285 0.4477153,1 1,1 0.5522847,0 1,-0.447715 1,-1 L 7,8 C 7,7.4358706 7.4358706,7 8,7 l 9.5,0 c 0.180236,0 0.343476,0.093911 0.433594,0.25 0.09012,0.1560889 0.09012,0.3439111 0,0.5 C 17.843476,7.9060889 17.680236,8 17.5,8 16.131133,8 15,9.1311328 15,10.5 l 0,2.5 c 0,0.552285 0.447715,1 1,1 0.552285,0 1,-0.447715 1,-1 l 0,-2.5 c 0,-0.287987 0.212013,-0.5 0.5,-0.5 0.891561,0 1.720235,-0.4778857 2.166016,-1.25 0.44578,-0.7721143 0.44578,-1.7278857 0,-2.5 C 19.220235,5.4778857 18.391561,5 17.5,5 Z M 3,8 C 2.4477153,8 2,8.4477153 2,9 l 0,5 c 0,1.64501 1.3549904,3 3,3 2.0833333,0 4.1666667,0 6.25,0 0.980877,0 1.890421,-0.525535 2.380859,-1.375 0.490439,-0.849465 0.490439,-1.900535 0,-2.75 C 13.140421,12.025535 12.230877,11.5 11.25,11.5 l -0.5,0 c -0.269552,0 -0.515614,-0.141561 -0.650391,-0.375 -0.1347746,-0.233439 -0.1347746,-0.516561 0,-0.75 C 10.234386,10.141561 10.480448,10 10.75,10 L 13,10 C 13.552285,10 14,9.5522847 14,9 14,8.4477153 13.552285,8 13,8 L 10.75,8 C 9.7691228,8 8.8576261,8.5255354 8.3671875,9.375 c -0.4904386,0.849465 -0.4904386,1.900535 0,2.75 C 8.8576261,12.974465 9.7691228,13.5 10.75,13.5 l 0.5,0 c 0.269552,0 0.515614,0.141561 0.650391,0.375 0.134776,0.233439 0.134776,0.516561 0,0.75 C 11.765614,14.858439 11.519552,15 11.25,15 9.1666667,15 7.0833333,15 5,15 4.4358706,15 4,14.564129 4,14 L 4,9 C 4,8.4477153 3.5522847,8 3,8 Z"
     id="path4136"
     inkscape:connector-curvature="0"
     sodipodi:nodetypes="ssssssssssssssssssssssssccsssssssssssssssssccsss" />
</svg>

<svg xmlns="http://www.w3.org/2000/svg" viewBox="0 0 22 22">
 <path d="m 8 5 c -1.645 0 -3 1.355 -3 3 l 0 5 c 0 0.552 0.448 1 1 1 0.552 0 1 -0.448 1 -1 l 0 -5 c 0 -0.564 0.436 -1 1 -1 l 9.5 0 c 0.18 0 0.343 0.094 0.434 0.25 0.09 0.156 0.09 0.344 0 0.5 c -0.09 0.156 -0.253 0.25 -0.434 0.25 -1.369 0 -2.5 1.131 -2.5 2.5 l 0 2.5 c 0 0.552 0.448 1 1 1 0.552 0 1 -0.448 1 -1 l 0 -2.5 c 0 -0.288 0.212 -0.5 0.5 -0.5 0.892 0 1.72 -0.478 2.166 -1.25 0.446 -0.772 0.446 -1.728 0 -2.5 c -0.446 -0.772 -1.274 -1.25 -2.166 -1.25 m -14.5 3 c -0.552 0 -1 0.448 -1 1 l 0 5 c 0 1.645 1.355 3 3 3 2.083 0 4.167 0 6.25 0 0.981 0 1.89 -0.526 2.381 -1.375 0.49 -0.849 0.49 -1.901 0 -2.75 c -0.49 -0.849 -1.4 -1.375 -2.381 -1.375 l -0.5 0 c -0.27 0 -0.516 -0.142 -0.65 -0.375 -0.135 -0.233 -0.135 -0.517 0 -0.75 c 0.135 -0.233 0.381 -0.375 0.65 -0.375 l 2.25 0 c 0.552 0 1 -0.448 1 -1 0 -0.552 -0.448 -1 -1 -1 l -2.25 0 c -0.981 0 -1.892 0.526 -2.383 1.375 c -0.49 0.849 -0.49 1.901 0 2.75 c 0.49 0.849 1.402 1.375 2.383 1.375 l 0.5 0 c 0.27 0 0.516 0.142 0.65 0.375 0.135 0.233 0.135 0.517 0 0.75 c -0.135 0.233 -0.381 0.375 -0.65 0.375 -2.083 0 -4.167 0 -6.25 0 -0.564 0 -1 -0.436 -1 -1 l 0 -5 c 0 -0.552 -0.448 -1 -1 -1" style="fill:#d07d86;opacity:1;fill-opacity:1;stroke:none;fill-rule:nonzero"/>
</svg>
